white/gbp.svg

<!-- Generated by IcoMoon.io -->
<svg version="1.1" xmlns="http://www.w3.org/2000/svg" width="32" height="32" viewBox="0 0 32 32">
<title>gbp</title>
<path fill="#fff" d="M16 32c-8.837 0-16-7.163-16-16s7.163-16 16-16 16 7.163 16 16-7.163 16-16 16zM11.087 14.815h-2.087v2.637h2.087v4.462l-2.087 0.609v1.977h13.947v-2.713h-8.585v-4.335h6.578v-2.637h-6.578v-2.255c0-1.952 1.057-3.169 2.827-3.169 1.479 0 2.377 0.685 3.328 1.85l2.483-1.901c-1.268-1.598-2.906-2.84-5.838-2.84-3.856 0-6.075 2.307-6.075 5.983z"></path>
</svg>

<svg height="32" width="32" xmlns="http://www.w3.org/2000/svg"><path d="M16 32C7.163 32 0 24.837 0 16S7.163 0 16 0s16 7.163 16 16-7.163 16-16 16zm-4.913-17.185H9v2.637h2.087v4.462L9 22.523V24.5h13.947v-2.713h-8.585v-4.335h6.578v-2.637h-6.578V12.56c0-1.952 1.057-3.169 2.827-3.169 1.479 0 2.377.685 3.328 1.85L23 9.34c-1.268-1.598-2.906-2.84-5.838-2.84-3.856 0-6.075 2.307-6.075 5.983z" fill="#fff" fill-rule="evenodd"/></svg>
